src/status/22/battery-000-charging.svg

<svg viewBox="0 0 22 22" xmlns="http://www.w3.org/2000/svg">
 <path d="m8 3v2h-3v14h12v-14h-3v-2h-6zm5 3-1 5h3l-6 7 1-5h-3l6-7z" fill="#bf616a"/>
</svg>

<svg xmlns="http://www.w3.org/2000/svg" viewBox="0 0 22 22">
 <path d="M 8,3 8,5 5,5 5,19 17,19 17,5 14,5 14,3 8,3 z m 5,3 -1,5 3,0 -6,7 1,-5 -3,0 6,-7 z" style="fill:#bf616a;fill-opacity:1"/>
</svg>
